X: 27
T: Allen Water
%R: _
B: "A Collection of Original Scotch-Tunes", Henry Playford, 1700, ed. p.12 #27
F: http://imslp.org/wiki/A_Collection_of_Original_Scotch_Tunes_(Various)
Z: 2015 John Chambers <jc:trillian.mit.edu>
N: Note the 1-beat 1st/2nd "endings" in bar 4, transcribed here with a :| repeat symbol to satisfy ABC software.
M: none
L: 1/8
K: F
% - - - - - - - - - - - - - - - - - - - - - - - - - - - - -
[|\
F3 G A2 f2 | (cA) (GF) G2 (FD) |\
F3 G (AF) (Ac) | (dc) (dF) A2 [1 f2 :|[2 f>g ||\
ag/f/ gf/e/ fd cf | cA GF G2 FD |
f>gf>d cd fd | cA cF A2 f>g |\
ag/f/ gf/e/ fd cf | cA GF D2 f2 |\
cA GF (CD) (FG) | A3 G A2 f2 |]
% - - - - - - - - - - - - - - - - - - - - - - - - - - - - -

%%sep 1 1 500
%%sep 1 1 500

